Newaita-dark/apps/48/qtox.svg

<svg height="48pt" viewBox="0 0 48 48" width="48pt" xmlns="http://www.w3.org/2000/svg" xmlns:xlink="http://www.w3.org/1999/xlink"><linearGradient id="a"><stop offset="0" stop-opacity=".313725"/><stop offset=".222222" stop-opacity=".27451"/><stop offset="1" stop-opacity="0"/></linearGradient><radialGradient id="b" cx="450.908936" cy="189.579361" gradientTransform="matrix(.00000026 -.117199 -.210958 -.00000015 76.211413 95.392996)" gradientUnits="userSpaceOnUse" r="21.166656" xlink:href="#a"/><radialGradient id="c" cx="450.908936" cy="189.579361" gradientTransform="matrix(-.00000026 .117199 .210958 .00000015 -28.581865 -11.291219)" gradientUnits="userSpaceOnUse" r="21.166656" xlink:href="#a"/><radialGradient id="d" cx="450.908936" cy="189.579361" gradientTransform="matrix(-.00000026 -.117199 .210958 -.00000015 -28.581865 95.392996)" gradientUnits="userSpaceOnUse" r="21.166656" xlink:href="#a"/><radialGradient id="e" cx="450.908936" cy="189.579361" gradientTransform="matrix(.00000026 .117199 -.210958 .00000015 76.21141 -11.291222)" gradientUnits="userSpaceOnUse" r="21.166656" xlink:href="#a"/><linearGradient id="f" gradientTransform="matrix(.116082 0 0 .093759 -5.05592 20.158179)" gradientUnits="userSpaceOnUse" x1="254" x2="254" y1="233.5" y2="254.666672"><stop offset="0" stop-opacity=".27451"/><stop offset="1" stop-opacity="0"/></linearGradient><linearGradient id="g" gradientUnits="userSpaceOnUse" x1="23.814816" x2="23.814816" y1="42.05096580616" y2="4.34417266504"><stop offset="0" stop-color="#424242"/><stop offset="1" stop-color="#616161"/></linearGradient><linearGradient id="h"><stop offset="0" stop-color="#bdbdbd"/><stop offset="1" stop-color="#eee"/></linearGradient><linearGradient id="i" gradientUnits="userSpaceOnUse" x1="960" x2="960" xlink:href="#h" y1="335.118103" y2="1055.118164"/><linearGradient id="j" gradientUnits="userSpaceOnUse" x1="254" x2="254" xlink:href="#h" y1="64.166664" y2="127.666656"/><linearGradient id="k" gradientUnits="userSpaceOnUse" x1="960" x2="960" xlink:href="#h" y1="1375.118164" y2="1615.118164"/><path d="m36.714844 42.050781h3.96875v-1.984375h-3.96875zm0 0" fill="url(#b)"/><path d="m10.914062 42.050781h-3.96875v1.984375h3.96875zm0 0" fill="url(#c)"/><path d="m10.914062 42.050781h-3.96875v-1.984375h3.96875zm0 0" fill="url(#d)"/><path d="m36.714844 42.050781h3.96875v1.984375h-3.96875zm0 0" fill="url(#e)"/><path d="m10.914062 42.050781h25.800782v1.984375h-25.800782zm0 0" fill="url(#f)"/><path d="m23.734375 4.34375c-5.453125 0-9.84375 4.425781-9.84375 9.921875v5.953125h-3.96875c-1.097656 0-1.984375.886719-1.984375 1.988281v17.859375c0 1.097656.886719 1.984375 1.984375 1.984375h27.785156c1.097657 0 1.984375-.886719 1.984375-1.984375v-17.859375c0-1.101562-.886718-1.988281-1.984375-1.988281h-3.96875v-5.953125c0-5.496094-4.390625-9.921875-9.84375-9.921875zm0 0" fill="url(#g)"/><g stroke="#212121"><path d="m960.065849 335.086129c-133.058167 0-240.134561 107.076394-240.134561 239.977096 0 133.058166 107.076394 239.977096 240.134561 239.977096 32.122918 0 62.671184-6.141147 90.54254-17.478647 39.366321 138.411986-79.362505 212.735601-9.762848 212.735601 188.328482-72.434031 159.197404-415.235959 159.197404-436.336307 0-.472396 0-.787327 0-1.102257-1.259722-131.95591-107.863721-237.772582-239.977096-237.772582zm0 0" fill="url(#i)" stroke-width="11.338583" transform="scale(.0248071)"/><path d="m254.017409 64.181673c17.498329 0 31.746969 13.998663 31.746969 31.288679v.874916c0 17.290016-14.24864 31.330341-31.746969 31.330341-17.539991 0-31.746968-14.040325-31.746968-31.330341v-.874916c0-17.290016 14.206977-31.288679 31.746968-31.288679zm0 0" fill="url(#j)" stroke-width="3" transform="matrix(.093759 0 0 .093759 0 20.158175)"/><path d="m843.384072 1324.912917c-50.546357 28.973613-83.456601 76.370664-83.456601 130.223791v79.992366c0 44.247745 35.744619 79.992365 80.14983 79.992365h239.977096c44.247745 0 79.992365-35.74462 79.992365-79.992365v-79.992366c0-53.853127-32.910244-101.250178-83.456601-130.223791-29.131078 31.020661-70.544448 50.231426-116.524312 50.231426-46.137329 0-87.550699-19.210765-116.681777-50.231426zm0 0" fill="url(#k)" stroke-width="11.338583" transform="scale(.0248071)"/></g><path d="m23.734375 4.34375c-5.453125 0-9.84375 4.425781-9.84375 9.921875v.496094c0-5.496094 4.390625-9.921875 9.84375-9.921875h.160156c5.453125 0 9.84375 4.425781 9.84375 9.921875v-.496094c0-5.496094-4.390625-9.921875-9.84375-9.921875zm-13.8125 15.875c-1.097656 0-1.984375.886719-1.984375 1.988281v.496094c0-1.101563.886719-1.984375 1.984375-1.984375h3.96875v-.5zm23.816406 0v.5h3.96875c1.097657 0 1.984375.882812 1.984375 1.984375v-.496094c0-1.101562-.886718-1.988281-1.984375-1.988281zm0 0" fill="#fff" fill-opacity=".392157"/><path d="m7.9375 39.570312v.496094c0 1.097656.886719 1.984375 1.984375 1.984375h27.785156c1.097657 0 1.984375-.886719 1.984375-1.984375v-.496094c0 1.097657-.886718 1.984376-1.984375 1.984376h-27.785156c-1.097656 0-1.984375-.886719-1.984375-1.984376zm0 0" fill-opacity=".235294"/><path d="m23.734375 4.203125c-5.527344 0-9.984375 4.492187-9.984375 10.0625v5.8125h-3.828125c-1.175781 0-2.125.953125-2.125 2.128906v17.859375c0 1.175782.949219 2.125 2.125 2.125h27.785156c1.175781 0 2.125-.949218 2.125-2.125v-17.859375c0-1.175781-.949219-2.128906-2.125-2.128906h-3.828125v-5.8125c0-5.570313-4.457031-10.0625-9.984375-10.0625zm0 .28125h.160156c5.378907 0 9.703125 4.359375 9.703125 9.78125v6.09375h4.109375c1.023438 0 1.84375.820313 1.84375 1.847656v17.859375c0 1.023438-.820312 1.84375-1.84375 1.84375h-27.785156c-1.023437 0-1.84375-.820312-1.84375-1.84375v-17.859375c0-1.027343.820313-1.847656 1.84375-1.847656h4.109375v-6.09375c0-5.421875 4.328125-9.78125 9.703125-9.78125zm0 0" fill="#212121"/></svg>

<?xml version="1.0" encoding="UTF-8"?>
<svg xmlns="http://www.w3.org/2000/svg" xmlns:xlink="http://www.w3.org/1999/xlink" width="48pt" height="48pt" viewBox="0 0 48 48" version="1.1">
<defs>
<radialGradient id="radial0" gradientUnits="userSpaceOnUse" cx="450.908936" cy="189.579361" fx="450.908936" fy="189.579361" r="21.166656" gradientTransform="matrix(0.000000261256,-0.117199,-0.210958,-0.000000152308,76.211413,95.392996)">
<stop offset="0" style="stop-color:rgb(0%,0%,0%);stop-opacity:0.313725;"/>
<stop offset="0.222222" style="stop-color:rgb(0%,0%,0%);stop-opacity:0.27451;"/>
<stop offset="1" style="stop-color:rgb(0%,0%,0%);stop-opacity:0;"/>
</radialGradient>
<radialGradient id="radial1" gradientUnits="userSpaceOnUse" cx="450.908936" cy="189.579361" fx="450.908936" fy="189.579361" r="21.166656" gradientTransform="matrix(-0.000000261256,0.117199,0.210958,0.000000152308,-28.581865,-11.291219)">
<stop offset="0" style="stop-color:rgb(0%,0%,0%);stop-opacity:0.313725;"/>
<stop offset="0.222222" style="stop-color:rgb(0%,0%,0%);stop-opacity:0.27451;"/>
<stop offset="1" style="stop-color:rgb(0%,0%,0%);stop-opacity:0;"/>
</radialGradient>
<radialGradient id="radial2" gradientUnits="userSpaceOnUse" cx="450.908936" cy="189.579361" fx="450.908936" fy="189.579361" r="21.166656" gradientTransform="matrix(-0.000000261256,-0.117199,0.210958,-0.000000152308,-28.581865,95.392996)">
<stop offset="0" style="stop-color:rgb(0%,0%,0%);stop-opacity:0.313725;"/>
<stop offset="0.222222" style="stop-color:rgb(0%,0%,0%);stop-opacity:0.27451;"/>
<stop offset="1" style="stop-color:rgb(0%,0%,0%);stop-opacity:0;"/>
</radialGradient>
<radialGradient id="radial3" gradientUnits="userSpaceOnUse" cx="450.908936" cy="189.579361" fx="450.908936" fy="189.579361" r="21.166656" gradientTransform="matrix(0.000000261256,0.117199,-0.210958,0.000000152308,76.21141,-11.291222)">
<stop offset="0" style="stop-color:rgb(0%,0%,0%);stop-opacity:0.313725;"/>
<stop offset="0.222222" style="stop-color:rgb(0%,0%,0%);stop-opacity:0.27451;"/>
<stop offset="1" style="stop-color:rgb(0%,0%,0%);stop-opacity:0;"/>
</radialGradient>
<linearGradient id="linear0" gradientUnits="userSpaceOnUse" x1="254" y1="233.5" x2="254" y2="254.666672" gradientTransform="matrix(0.116082,0,0,0.093759,-5.05592,20.158179)">
<stop offset="0" style="stop-color:rgb(0%,0%,0%);stop-opacity:0.27451;"/>
<stop offset="1" style="stop-color:rgb(0%,0%,0%);stop-opacity:0;"/>
</linearGradient>
<linearGradient id="linear1" gradientUnits="userSpaceOnUse" x1="960" y1="1695.118164" x2="960" y2="175.118118" gradientTransform="matrix(0.0248071,0,0,0.0248071,0,0)">
<stop offset="0" style="stop-color:rgb(25.882353%,25.882353%,25.882353%);stop-opacity:1;"/>
<stop offset="1" style="stop-color:rgb(38.039216%,38.039216%,38.039216%);stop-opacity:1;"/>
</linearGradient>
<linearGradient id="linear2" gradientUnits="userSpaceOnUse" x1="960" y1="335.118103" x2="960" y2="1055.118164" gradientTransform="matrix(1,0,0,1,0,0)">
<stop offset="0" style="stop-color:rgb(74.117647%,74.117647%,74.117647%);stop-opacity:1;"/>
<stop offset="1" style="stop-color:rgb(93.333333%,93.333333%,93.333333%);stop-opacity:1;"/>
</linearGradient>
<linearGradient id="linear3" gradientUnits="userSpaceOnUse" x1="254" y1="64.166664" x2="254" y2="127.666656" gradientTransform="matrix(1,0,0,1,0,0)">
<stop offset="0" style="stop-color:rgb(74.117647%,74.117647%,74.117647%);stop-opacity:1;"/>
<stop offset="1" style="stop-color:rgb(93.333333%,93.333333%,93.333333%);stop-opacity:1;"/>
</linearGradient>
<linearGradient id="linear4" gradientUnits="userSpaceOnUse" x1="960" y1="1375.118164" x2="960" y2="1615.118164" gradientTransform="matrix(1,0,0,1,0,0)">
<stop offset="0" style="stop-color:rgb(74.117647%,74.117647%,74.117647%);stop-opacity:1;"/>
<stop offset="1" style="stop-color:rgb(93.333333%,93.333333%,93.333333%);stop-opacity:1;"/>
</linearGradient>
</defs>
<g id="surface1">
<path style=" stroke:none;fill-rule:nonzero;fill:url(#radial0);" d="M 36.714844 42.050781 L 40.683594 42.050781 L 40.683594 40.066406 L 36.714844 40.066406 Z M 36.714844 42.050781 "/>
<path style=" stroke:none;fill-rule:nonzero;fill:url(#radial1);" d="M 10.914062 42.050781 L 6.945312 42.050781 L 6.945312 44.035156 L 10.914062 44.035156 Z M 10.914062 42.050781 "/>
<path style=" stroke:none;fill-rule:nonzero;fill:url(#radial2);" d="M 10.914062 42.050781 L 6.945312 42.050781 L 6.945312 40.066406 L 10.914062 40.066406 Z M 10.914062 42.050781 "/>
<path style=" stroke:none;fill-rule:nonzero;fill:url(#radial3);" d="M 36.714844 42.050781 L 40.683594 42.050781 L 40.683594 44.035156 L 36.714844 44.035156 Z M 36.714844 42.050781 "/>
<path style=" stroke:none;fill-rule:nonzero;fill:url(#linear0);" d="M 10.914062 42.050781 L 36.714844 42.050781 L 36.714844 44.035156 L 10.914062 44.035156 Z M 10.914062 42.050781 "/>
<path style=" stroke:none;fill-rule:nonzero;fill:url(#linear1);" d="M 23.734375 4.34375 C 18.28125 4.34375 13.890625 8.769531 13.890625 14.265625 L 13.890625 20.21875 L 9.921875 20.21875 C 8.824219 20.21875 7.9375 21.105469 7.9375 22.207031 L 7.9375 40.066406 C 7.9375 41.164062 8.824219 42.050781 9.921875 42.050781 L 37.707031 42.050781 C 38.804688 42.050781 39.691406 41.164062 39.691406 40.066406 L 39.691406 22.207031 C 39.691406 21.105469 38.804688 20.21875 37.707031 20.21875 L 33.738281 20.21875 L 33.738281 14.265625 C 33.738281 8.769531 29.347656 4.34375 23.894531 4.34375 Z M 23.734375 4.34375 "/>
<path style="fill-rule:nonzero;fill:url(#linear2);stroke-width:11.338583;stroke-linecap:butt;stroke-linejoin:miter;stroke:rgb(12.941177%,12.941177%,12.941177%);stroke-opacity:1;stroke-miterlimit:4;" d="M 960.065849 335.086129 C 827.007682 335.086129 719.931288 442.162523 719.931288 575.063225 C 719.931288 708.121391 827.007682 815.040321 960.065849 815.040321 C 992.188767 815.040321 1022.737033 808.899174 1050.608389 797.561674 C 1089.97471 935.97366 971.245884 1010.297275 1040.845541 1010.297275 C 1229.174023 937.863244 1200.042945 595.061316 1200.042945 573.960968 C 1200.042945 573.488572 1200.042945 573.173641 1200.042945 572.858711 C 1198.783223 440.902801 1092.179224 335.086129 960.065849 335.086129 Z M 960.065849 335.086129 " transform="matrix(0.0248071,0,0,0.0248071,0,0)"/>
<path style="fill-rule:nonzero;fill:url(#linear3);stroke-width:3;stroke-linecap:butt;stroke-linejoin:miter;stroke:rgb(12.941177%,12.941177%,12.941177%);stroke-opacity:1;stroke-miterlimit:4;" d="M 254.017409 64.181673 C 271.515738 64.181673 285.764378 78.180336 285.764378 95.470352 L 285.764378 96.345268 C 285.764378 113.635284 271.515738 127.675609 254.017409 127.675609 C 236.477418 127.675609 222.270441 113.635284 222.270441 96.345268 L 222.270441 95.470352 C 222.270441 78.180336 236.477418 64.181673 254.017409 64.181673 Z M 254.017409 64.181673 " transform="matrix(0.093759,0,0,0.093759,0,20.158175)"/>
<path style="fill-rule:nonzero;fill:url(#linear4);stroke-width:11.338583;stroke-linecap:butt;stroke-linejoin:miter;stroke:rgb(12.941177%,12.941177%,12.941177%);stroke-opacity:1;stroke-miterlimit:4;" d="M 843.384072 1324.912917 C 792.837715 1353.88653 759.927471 1401.283581 759.927471 1455.136708 L 759.927471 1535.129074 C 759.927471 1579.376819 795.67209 1615.121439 840.077301 1615.121439 L 1080.054397 1615.121439 C 1124.302142 1615.121439 1160.046762 1579.376819 1160.046762 1535.129074 L 1160.046762 1455.136708 C 1160.046762 1401.283581 1127.136518 1353.88653 1076.590161 1324.912917 C 1047.459083 1355.933578 1006.045713 1375.144343 960.065849 1375.144343 C 913.92852 1375.144343 872.51515 1355.933578 843.384072 1324.912917 Z M 843.384072 1324.912917 " transform="matrix(0.0248071,0,0,0.0248071,0,0)"/>
<path style=" stroke:none;fill-rule:nonzero;fill:rgb(100%,100%,100%);fill-opacity:0.392157;" d="M 23.734375 4.34375 C 18.28125 4.34375 13.890625 8.769531 13.890625 14.265625 L 13.890625 14.761719 C 13.890625 9.265625 18.28125 4.839844 23.734375 4.839844 L 23.894531 4.839844 C 29.347656 4.839844 33.738281 9.265625 33.738281 14.761719 L 33.738281 14.265625 C 33.738281 8.769531 29.347656 4.34375 23.894531 4.34375 Z M 9.921875 20.21875 C 8.824219 20.21875 7.9375 21.105469 7.9375 22.207031 L 7.9375 22.703125 C 7.9375 21.601562 8.824219 20.71875 9.921875 20.71875 L 13.890625 20.71875 L 13.890625 20.21875 Z M 33.738281 20.21875 L 33.738281 20.71875 L 37.707031 20.71875 C 38.804688 20.71875 39.691406 21.601562 39.691406 22.703125 L 39.691406 22.207031 C 39.691406 21.105469 38.804688 20.21875 37.707031 20.21875 Z M 33.738281 20.21875 "/>
<path style=" stroke:none;fill-rule:nonzero;fill:rgb(0%,0%,0%);fill-opacity:0.235294;" d="M 7.9375 39.570312 L 7.9375 40.066406 C 7.9375 41.164062 8.824219 42.050781 9.921875 42.050781 L 37.707031 42.050781 C 38.804688 42.050781 39.691406 41.164062 39.691406 40.066406 L 39.691406 39.570312 C 39.691406 40.667969 38.804688 41.554688 37.707031 41.554688 L 9.921875 41.554688 C 8.824219 41.554688 7.9375 40.667969 7.9375 39.570312 Z M 7.9375 39.570312 "/>
<path style=" stroke:none;fill-rule:nonzero;fill:rgb(12.941177%,12.941177%,12.941177%);fill-opacity:1;" d="M 23.734375 4.203125 C 18.207031 4.203125 13.75 8.695312 13.75 14.265625 L 13.75 20.078125 L 9.921875 20.078125 C 8.746094 20.078125 7.796875 21.03125 7.796875 22.207031 L 7.796875 40.066406 C 7.796875 41.242188 8.746094 42.191406 9.921875 42.191406 L 37.707031 42.191406 C 38.882812 42.191406 39.832031 41.242188 39.832031 40.066406 L 39.832031 22.207031 C 39.832031 21.03125 38.882812 20.078125 37.707031 20.078125 L 33.878906 20.078125 L 33.878906 14.265625 C 33.878906 8.695312 29.421875 4.203125 23.894531 4.203125 Z M 23.734375 4.484375 L 23.894531 4.484375 C 29.273438 4.484375 33.597656 8.84375 33.597656 14.265625 L 33.597656 20.359375 L 37.707031 20.359375 C 38.730469 20.359375 39.550781 21.179688 39.550781 22.207031 L 39.550781 40.066406 C 39.550781 41.089844 38.730469 41.910156 37.707031 41.910156 L 9.921875 41.910156 C 8.898438 41.910156 8.078125 41.089844 8.078125 40.066406 L 8.078125 22.207031 C 8.078125 21.179688 8.898438 20.359375 9.921875 20.359375 L 14.03125 20.359375 L 14.03125 14.265625 C 14.03125 8.84375 18.359375 4.484375 23.734375 4.484375 Z M 23.734375 4.484375 "/>
</g>
</svg>
